!!!COM:	Du Fay, Guillaume
!!!CDT:	~1397/08/05/-1474/11/27
!!!OPR:	Missa Ecce ancilla domini
!!!ONM:	2
!!!OTL:	Gloria
!!!AGN:	Mass; Gloria
!!!SCT:	Duf1003b
!!!SCA:	Duf1003b
!!!voices:	4
!!!voices-OPR:	4
**kern	**text	**kern	**text	**kern	**text	**kern	**text
*staff4	*staff4	*staff3	*staff3	*staff2	*staff2	*staff1	*staff1
*Ivox	*	*Ivox	*	*Ivox	*	*Ivox	*
*I"Tenor2	*	*I"Tenor1	*	*I"Altus	*	*I"Cantus	*
*I'T2	*	*I'T1	*	*I'A	*	*I'Cn	*
*>[A,B]	*>[A,B]	*>[A,B]	*>[A,B]	*>[A,B]	*>[A,B]	*>[A,B]	*>[A,B]
*>A	*>A	*>A	*>A	*>A	*>A	*>A	*>A
*clefF4	*	*clefGv2	*	*clefGv2	*	*clefG2	*
*k[b-]	*	*k[]	*	*k[]	*	*k[]	*
*M3/1	*	*M3/1	*	*M3/1	*	*M3/1	*
*met(O)	*	*met(O)	*	*met(O)	*	*met(O)	*
!!section: Et in terra pax
!!!OMD: Et in terra pax
=1-	=1-	=1-	=1-	=1-	=1-	=1-	=1-
0.r	.	0.r	.	1.G	Et	0.g	Et
.	.	.	.	2A/	.	.	.
.	.	.	.	1B	in	.	.
=2	=2	=2	=2	=2	=2	=2	=2
0.r	.	0.r	.	1c	ter-	1e	in
.	.	.	.	1.d	-ra	1.f	ter-
.	.	.	.	2c\	.	2e/	.
=3	=3	=3	=3	=3	=3	=3	=3
0.r	.	0.r	.	0c	pax	1e	-ra
.	.	.	.	.	.	1.a	.
.	.	.	.	1A	ho-	.	.
.	.	.	.	.	.	2g/	.
=4	=4	=4	=4	=4	=4	=4	=4
0.r	.	0.r	.	1B	-mi-	0g	pax
.	.	.	.	1.c	.	.	.
.	.	.	.	.	.	2e/	ho-
.	.	.	.	2B\	-ni-	2d/	.
=5	=5	=5	=5	=5	=5	=5	=5
0.r	.	0.r	.	0G	-bus	1e	-mi-
.	.	.	.	.	.	2d/	.
.	.	.	.	.	.	1d	-ni-
.	.	.	.	2G/	bo-	.	.
.	.	.	.	2E/	.	4c/	.
.	.	.	.	.	.	4B/	.
=6	=6	=6	=6	=6	=6	=6	=6
0.r	.	0.r	.	1F#i	.	1A	-bus
.	.	.	.	0G	-ne	1G	.
.	.	.	.	.	.	2r	.
.	.	.	.	.	.	[2g/	bo-
=7	=7	=7	=7	=7	=7	=7	=7
0.r	.	0.r	.	1B	vo-	4g/]	.
.	.	.	.	.	.	4f/	.
.	.	.	.	.	.	2g/	.
.	.	.	.	2c\	.	2a/	.
.	.	.	.	2A/	.	2f/	.
.	.	.	.	2G/	.	2.g/	.
.	.	.	.	[2c\	-lun-	.	.
.	.	.	.	.	.	4f/	.
=8	=8	=8	=8	=8	=8	=8	=8
0.r	.	0.r	.	2c\]	.	2e/	.
.	.	.	.	2d\	.	1d	-ne
.	.	.	.	2B\	.	.	.
.	.	.	.	2G/	.	2g/	vo-
.	.	.	.	1A	-ta-	2e/	-lun-
.	.	.	.	.	.	2f/	.
=9	=9	=9	=9	=9	=9	=9	=9
0.r	.	0.r	.	2B\	.	2g/	.
.	.	.	.	1c	.	2.a/	-ta-
.	.	.	.	.	.	4g/	.
.	.	.	.	2B\	.	1g	.
.	.	.	.	1A	.	.	.
.	.	.	.	.	.	2f#i/	.
=10	=10	=10	=10	=10	=10	=10	=10
0.r	.	0.r	.	0G	-tis.	0.g	-tis.
.	.	.	.	1r	.	.	.
=11	=11	=11	=11	=11	=11	=11	=11
0.r	.	0.r	.	1c	Lau-	2r	.
.	.	.	.	.	.	2.e/	Lau-
.	.	.	.	2B\	.	.	.
.	.	.	.	.	.	4d/	.
.	.	.	.	1A	-da-	2e/	.
.	.	.	.	.	.	2f/	.
.	.	.	.	2G/	.	2g/	.
=12	=12	=12	=12	=12	=12	=12	=12
0.r	.	0.r	.	1A	-mus	4f/	-da-
.	.	.	.	.	.	4e/	.
.	.	.	.	.	.	4d/	.
.	.	.	.	.	.	4c/	.
.	.	.	.	2E/	.	2B/	.
.	.	.	.	2G/	.	1e	.
.	.	.	.	1F	.	.	.
.	.	.	.	.	.	2d/	.
=13	=13	=13	=13	=13	=13	=13	=13
0.r	.	0.r	.	1E	te.	2e/	-mus
.	.	.	.	.	.	1c	.
.	.	.	.	1A	Be-	.	.
.	.	.	.	.	.	2c/	.
.	.	.	.	2.G/	-ne-	4d/	.
.	.	.	.	.	.	2B/	.
.	.	.	.	4E/	.	4G/	.
=14	=14	=14	=14	=14	=14	=14	=14
0.r	.	0.r	.	2F/	.	2A/	te
.	.	.	.	2G/	.	2G/	.
.	.	.	.	1C	-di-	2r	.
.	.	.	.	.	.	2e/	Be-
.	.	.	.	1D	.	4d/	-ne-
.	.	.	.	.	.	2f/	-di-
.	.	.	.	.	.	4g/	.
=15	=15	=15	=15	=15	=15	=15	=15
0.r	.	0.r	.	2C/	-ci-	2e/	.
.	.	.	.	1F	.	2.d/	.
.	.	.	.	.	.	4c/	.
.	.	.	.	2E/	.	1c	-ci-
.	.	.	.	1D	-mus	.	.
.	.	.	.	.	.	2B/	-mus
=16	=16	=16	=16	=16	=16	=16	=16
0.r	.	0.r	.	0C	te.	1c	te.
.	.	.	.	.	.	1r	.
.	.	.	.	1G	Ad-	2d/	Ad-
.	.	.	.	.	.	[2e/	-o-
=17	=17	=17	=17	=17	=17	=17	=17
0.r	.	0.r	.	1A	-o-	2e/]	.
.	.	.	.	.	.	2f/	.
.	.	.	.	1B	.	1d	.
.	.	.	.	2A/	.	1c	.
.	.	.	.	[2c\	.	.	.
=18	=18	=18	=18	=18	=18	=18	=18
0.r	.	0.r	.	2c\]	.	2e/	-ra-
.	.	.	.	2B\	.	4f/	.
.	.	.	.	.	.	2g/	.
.	.	.	.	1.G	-ra-	.	.
.	.	.	.	.	.	4f/	.
.	.	.	.	.	.	4e/	.
.	.	.	.	.	.	4d/	.
.	.	.	.	.	.	1d	-mu...-
.	.	.	.	2F/	.	.	.
=19	=19	=19	=19	=19	=19	=19	=19
0.r	.	0.r	.	2G/	.	2r	.
.	.	.	.	2B\	.	2g/	.
.	.	.	.	0A	-mus	2a/	.
.	.	.	.	.	.	2e/	.
.	.	.	.	.	.	2.f#i/	.
.	.	.	.	.	.	4e/	-...s
=20	=20	=20	=20	=20	=20	=20	=20
0.r	.	0.r	.	0.G	te.	[0.g	te.
=21	=21	=21	=21	=21	=21	=21	=21
1r	.	0.G	Ec-	0.r	.	0.g]	.
1r	.	.	.	.	.	.	.
1G	Glo-	.	.	.	.	.	.
=22	=22	=22	=22	=22	=22	=22	=22
0C	-ri-	[0.c	.	1G	Glo-	0.r	.
.	.	.	.	1G	-ri-	.	.
1F	-fi-	.	.	1A	-fi-	.	.
=23	=23	=23	=23	=23	=23	=23	=23
1E	-ca-	0.c]	.	1.G	-ca-	1g	Glo-
0C	.	.	.	.	.	1g	-ri-
.	.	.	.	1E	.	.	.
.	.	.	.	.	.	1g	-fi-
.	.	.	.	2F/	.	.	.
=24	=24	=24	=24	=24	=24	=24	=24
1.C	-mus	0.c	-ce	2G/	.	0e	-ca-
.	.	.	.	1A	.	.	.
2BB-/	.	.	.	2G/	.	.	.
1AA	.	.	.	2E/	-mus	1c	-mus
.	.	.	.	2F/	.	.	.
=25	=25	=25	=25	=25	=25	=25	=25
0GG	te.	[0.B	.	0G	te.	1d	te.
.	.	.	.	.	.	2.g/	.
.	.	.	.	.	.	4f/	.
1GG	Gra-	.	.	1r	.	1d	.
=26	=26	=26	=26	=26	=26	=26	=26
0G	-ti-	0.B]	.	1d	Gra-	1r	.
.	.	.	.	1d	-ti-	1g	Gra-
1G	-as	.	.	1d	-as	1g	-ti-
=27	=27	=27	=27	=27	=27	=27	=27
2F\	a-	0.r	.	0d	a-	2a/	-as
1G	.	.	.	.	.	2b-\	.
.	.	.	.	.	.	1g	a-
2F\	.	.	.	.	.	.	.
1E	-gi-	.	.	2c\	-gi-	1g	-gi-
.	.	.	.	2B-i\	.	.	.
=28	=28	=28	=28	=28	=28	=28	=28
0.D	-mus	0.A	an-	0d	-mus	0f#	-mus
.	.	.	.	1d	ti-	1f#	ti-
=29	=29	=29	=29	=29	=29	=29	=29
1r	.	0.G	.	0B-i	-bi	0g	-bi
0GG	prop-	.	.	.	.	.	.
.	.	.	.	1B-i	prop-	1d	prop-
=30	=30	=30	=30	=30	=30	=30	=30
1.D	-ter	0.A	-cil-	1A	-ter	2d/	-ter
.	.	.	.	.	.	1f	.
.	.	.	.	1F	ma-	.	.
2E\	.	.	.	.	.	2g/	.
1F	.	.	.	1D	-gnam	1a	ma-
=31	=31	=31	=31	=31	=31	=31	=31
0G	ma-	0.B-i	.	1r	.	2g/	.
.	.	.	.	.	.	1g	.
.	.	.	.	0d	glo-	.	.
.	.	.	.	.	.	4f/	.
.	.	.	.	.	.	4e/	.
1G	-gnam	.	.	.	.	1d	-gnam
=32	=32	=32	=32	=32	=32	=32	=32
0.D	glo-	0.A	-la	1d	-ri-	1r	.
.	.	.	.	0d	-am	1f	glo-
.	.	.	.	.	.	1f	-ri-
=33	=33	=33	=33	=33	=33	=33	=33
1E-	-ri-	1G	do-	1c	tu-	1g	-am
1D	-am	1F	.	1.d	.	1a	.
[1GG	tu-	[1G	.	.	.	2b-i\	.
.	.	.	.	2c\	.	2g/	.
=34	=34	=34	=34	=34	=34	=34	=34
1GG]	.	1G]	.	1B-	.	1.g	tu-
0D	.	0A	.	1A	.	.	.
.	.	.	.	.	.	2f#i/	.
.	.	.	.	1d	.	2f#i/	.
.	.	.	.	.	.	2e/	.
=35	=35	=35	=35	=35	=35	=35	=35
0GG	-am.	0.G	-mi-	0.d	-am.	0.g	-am.
1r	.	.	.	.	.	.	.
=36	=36	=36	=36	=36	=36	=36	=36
1.GG	Do-	0.G	-ni:	1r	.	0.r	.
.	.	.	.	1r	.	.	.
2AA/	.	.	.	.	.	.	.
1BB-	.	.	.	1G	Do-	.	.
=37	=37	=37	=37	=37	=37	=37	=37
1C	-mi-	0.r	.	1A	-mi-	0.r	.
0D	-ne	.	.	1.B	-ne	.	.
.	.	.	.	2A/	.	.	.
=38	=38	=38	=38	=38	=38	=38	=38
1C	de-	0.r	.	1c	de-	0.r	.
1E	.	.	.	2B\	.	.	.
.	.	.	.	2G/	.	.	.
2F\	.	.	.	2A/	.	.	.
[2G\	-us,	.	.	2B\	.	.	.
=39	=39	=39	=39	=39	=39	=39	=39
2G\]	.	0.r	.	1G	-us,	0.r	.
2E\	rex	.	.	.	.	.	.
2F\	.	.	.	2A/	Rex	.	.
2G\	.	.	.	1G	.	.	.
1A	.	.	.	.	.	.	.
.	.	.	.	2F/	ce-	.	.
=40	=40	=40	=40	=40	=40	=40	=40
2G\	ce-	0.r	.	2G/	-les-	0.r	.
2.G\	-les-	.	.	2E/	.	.	.
.	.	.	.	2C/	.	.	.
4F\	.	.	.	.	.	.	.
2E\	.	.	.	1c	.	.	.
1D	.	.	.	.	.	.	.
.	.	.	.	2B\	.	.	.
=41	=41	=41	=41	=41	=41	=41	=41
1C	-stis,	0.r	.	2c\	-stis,	0.r	.
.	.	.	.	2e\	.	.	.
2BB-/	de-	.	.	2d\	.	.	.
2C/	.	.	.	1c	de-	.	.
1D	-us	.	.	.	.	.	.
.	.	.	.	2B\	-us	.	.
=42	=42	=42	=42	=42	=42	=42	=42
2E\	Pa-	0.r	.	2.c\	Pa-	0.r	.
1C	.	.	.	.	.	.	.
.	.	.	.	4B\	.	.	.
.	.	.	.	2A/	.	.	.
2BB-/	.	.	.	2.G/	.	.	.
1C	.	.	.	.	.	.	.
.	.	.	.	4F/	.	.	.
.	.	.	.	2E/	.	.	.
=43	=43	=43	=43	=43	=43	=43	=43
2GG/	-ter	0.r	.	2D/	-ter	0.r	.
2AA/	om-	.	.	2F/	om-	.	.
2GG/	-ni-	.	.	2B-\	.	.	.
1C	.	.	.	2A/	.	.	.
.	.	.	.	2G/	.	.	.
2E-\	.	.	.	2c\	-ni-	.	.
=44	=44	=44	=44	=44	=44	=44	=44
2D\	.	0.r	.	2B-i\	.	0.r	.
1C	.	.	.	2.A/	.	.	.
.	.	.	.	4G/	.	.	.
2BB-/	.	.	.	1G	-po-	.	.
1AA	-po-	.	.	.	.	.	.
.	.	.	.	2F#i/	.	.	.
=45	=45	=45	=45	=45	=45	=45	=45
0.GG	-tens.	0.r	.	0G	-tens.	0.r	.
.	.	.	.	1r	.	.	.
=46	=46	=46	=46	=46	=46	=46	=46
0.r	.	0.r	.	1c	Do-	1.g	Do-
.	.	.	.	2B\	-mi-	.	.
.	.	.	.	2c\	.	2a/	-mi-
.	.	.	.	1d	-ne	1b	-ne
=47	=47	=47	=47	=47	=47	=47	=47
0.r	.	0.r	.	2e\	fi-	2.cc\	fi-
.	.	.	.	1c	.	.	.
.	.	.	.	.	.	4b\	.
.	.	.	.	.	.	4a/	.
.	.	.	.	.	.	4g/	.
.	.	.	.	2B\	.	1g	.
.	.	.	.	1A	.	.	.
.	.	.	.	.	.	2f#i/	.
=48	=48	=48	=48	=48	=48	=48	=48
0.r	.	0.r	.	1G	-li	1g	-li
.	.	.	.	2G/	u-	2r	.
.	.	.	.	2E/	-ni-	2g/	u-
.	.	.	.	4A/	-ge-	2e/	-ni-
.	.	.	.	4G/	.	.	.
.	.	.	.	2F/	-ni-	2a/	-ge-
=49	=49	=49	=49	=49	=49	=49	=49
0.r	.	0.r	.	2E/	-te	2g/	-ni-
.	.	.	.	2r	.	2e/	-te
.	.	.	.	2E/	Je-	2r	.
.	.	.	.	2G/	.	2e/	Je-
.	.	.	.	2E/	.	2g/	.
.	.	.	.	2C/	-su	2e/	.
=50	=50	=50	=50	=50	=50	=50	=50
0.r	.	0.r	.	2r	.	2c/	-su
.	.	.	.	2E/	Chri-	2r	.
.	.	.	.	2D/	.	2f/	Chri-
.	.	.	.	1G	.	2e/	.
.	.	.	.	.	.	2.d/	.
.	.	.	.	2F/	.	.	.
.	.	.	.	.	.	4c/	.
=51	=51	=51	=51	=51	=51	=51	=51
0.r	.	0.r	.	2E/	.	2c/	.
.	.	.	.	4D/	.	4B/	.
.	.	.	.	4C/	.	4A/	.
.	.	.	.	2BB/	.	2G/	.
.	.	.	.	2C/	.	2A/	.
.	.	.	.	1D	.	2.B/	.
.	.	.	.	.	.	4A/	.
=52	=52	=52	=52	=52	=52	=52	=52
0.r	.	0.r	.	0.C	-ste.	1c	-ste.
.	.	.	.	.	.	1r	.
.	.	.	.	.	.	1e	Do-
=53	=53	=53	=53	=53	=53	=53	=53
1GG	Do-	0G	Fi-	0.r	.	1d	-mi-
0C	-mi-	.	.	.	.	2e/	.
.	.	.	.	.	.	1g	.
.	.	2E/	.	.	.	.	.
.	.	2F/	.	.	.	2f/	.
=54	=54	=54	=54	=54	=54	=54	=54
1C	-ne	1G	-at	0.r	.	2e/	.
.	.	.	.	.	.	2d/	.
2D\	de-	2F/	mi-	.	.	1d	-ne
2BB-/	.	2D/	.	.	.	.	.
1AA	-us,	1E	.	.	.	2c#i/	de-
.	.	.	.	.	.	2B/	.
=55	=55	=55	=55	=55	=55	=55	=55
2r	.	0D	-hi	0.r	.	2d/	-us,
1F	A-	.	.	.	.	2r	.
.	.	.	.	.	.	1a	A-
2G\	.	.	.	.	.	.	.
1A	.	1D	se-	.	.	1f	.
=56	=56	=56	=56	=56	=56	=56	=56
1G	-gnus	1E	-cun-	0.r	.	1g	-gnus
0D	.	0F	-dum	.	.	1.a	.
.	.	.	.	.	.	2g/	.
=57	=57	=57	=57	=57	=57	=57	=57
1GG	.	1G	ver-	0.r	.	1b	.
2FF/	de-	2A/	.	.	.	2cc\	.
2GG/	.	2G/	.	.	.	2b\	.
2AA/	.	1c	.	.	.	2.a/	.
2FF/	.	.	.	.	.	.	.
.	.	.	.	.	.	4g/	.
=58	=58	=58	=58	=58	=58	=58	=58
1GG	.	1B	-bum	0.r	.	1.g	de-
0D	.	0A	.	.	.	.	.
.	.	.	.	.	.	2f#i/	.
.	.	.	.	.	.	2f#i/	.
.	.	.	.	.	.	2e/	.
=59	=59	=59	=59	=59	=59	=59	=59
1E	-i,	[0.G	tu-	1C	Fi-	1g	-i,
1C	fi-	.	.	2G/	-li-	1g	fi-
.	.	.	.	1E	-us	.	.
2G\	-li-	.	.	.	.	1e	-li-
[2E\	-us	.	.	[2C/	pa-	.	.
=60	=60	=60	=60	=60	=60	=60	=60
2E\]	.	0.G]	.	4C/]	.	2c/	-us
.	.	.	.	4BB/	.	.	.
2C/	pa-	.	.	2C/	.	2e/	.
2BB-/	.	.	.	2D/	.	2d/	pa-
2C/	.	.	.	2E/	.	2.c/	.
1GG	.	.	.	1D	.	.	.
.	.	.	.	.	.	4B/	.
.	.	.	.	.	.	4B/	.
.	.	.	.	.	.	4A/	.
=61	=61	=61	=61	=61	=61	=61	=61
0.Cl	-tris.	0.Gl	-um.	0.Cl	-tris.	0.cl	-tris.
!!LO:LB:i:g=z
=62||	=62||	=62||	=62||	=62||	=62||	=62||	=62||
*>B	*>B	*>B	*>B	*>B	*>B	*>B	*>B
*clefF4	*	*clefGv2	*	*clefGv2	*	*clefG2	*
*k[b-]	*	*k[]	*	*k[]	*	*k[]	*
*M2/1	*	*M2/1	*	*M2/1	*	*M2/1	*
*met(C|)	*	*met(C|)	*	*met(C|)	*	*met(C|)	*
!!section: Qui tollis
!!!OMD: Qui tollis
0r	.	0r	.	0c	Qui	0c	Qui
=63.	=63	=63.	=63	=63.	=63	=63.	=63
0r	.	0r	.	0c	tol-	1.e	tol-
.	.	.	.	.	.	2f/	.
=64	=64	=64	=64	=64	=64	=64	=64
0r	.	0r	.	1B	-lis	1g	-lis
.	.	.	.	[1A	pec-	1a	pec-
=65.	=65	=65.	=65	=65.	=65	=65.	=65
0r	.	0r	.	1A]	.	1f	-ca-
.	.	.	.	1G	.	[1g	-ta
=66	=66	=66	=66	=66	=66	=66	=66
0r	.	0r	.	0c	-ca-	2g/]	.
.	.	.	.	.	.	2f/	.
.	.	.	.	.	.	2e/	.
.	.	.	.	.	.	2c/	.
=67.	=67	=67.	=67	=67.	=67	=67.	=67
0r	.	0r	.	1B	-ta	1d	mun-
.	.	.	.	1c	.	1c	-di,
=68	=68	=68	=68	=68	=68	=68	=68
0r	.	0r	.	0d	mun-	1r	.
.	.	.	.	.	.	1f	mi-
=69.	=69	=69.	=69	=69.	=69	=69.	=69
0r	.	0r	.	0c	-di,	1e	.
.	.	.	.	.	.	[1a	.
=70	=70	=70	=70	=70	=70	=70	=70
0r	.	0r	.	1d	mi-	1a]	.
.	.	.	.	[1e	.	1g	.
=71.	=71	=71.	=71	=71.	=71	=71.	=71
0r	.	0r	.	1e]	.	0e	-se-
.	.	.	.	1c	-se-	.	.
=72	=72	=72	=72	=72	=72	=72	=72
0r	.	0r	.	1d	-re-	1f	-re-
.	.	.	.	1B	.	[1g	.
=73.	=73	=73.	=73	=73.	=73	=73.	=73
0r	.	0r	.	0c	-re	2g/]	.
.	.	.	.	.	.	2f/	.
.	.	.	.	.	.	1e	.
=74	=74	=74	=74	=74	=74	=74	=74
0r	.	0r	.	1r	.	0d	.
.	.	.	.	1B	no-	.	.
=75.	=75	=75.	=75	=75.	=75	=75.	=75
0r	.	0r	.	1c	.	0c	-re
.	.	.	.	1A	.	.	.
=76	=76	=76	=76	=76	=76	=76	=76
0r	.	0r	.	0G	-bis.	1r	.
.	.	.	.	.	.	1B	no-
=77.	=77	=77.	=77	=77.	=77	=77.	=77
0r	.	0r	.	0F	.	1c	.
.	.	.	.	.	.	1A	.
=78	=78	=78	=78	=78	=78	=78	=78
0r	.	0r	.	1G	Qui	0G	-bis.
.	.	.	.	1E	.	.	.
=79.	=79	=79.	=79	=79.	=79	=79.	=79
0r	.	0r	.	1F	tol-	1r	.
.	.	.	.	[1G	.	1g	Qui
=80	=80	=80	=80	=80	=80	=80	=80
0r	.	0r	.	2G/]	.	1e	tol-
.	.	.	.	2F/	.	.	.
.	.	.	.	1D	.	1f	.
=81.	=81	=81.	=81	=81.	=81	=81.	=81
0r	.	0r	.	0C	.	1.g	.
.	.	.	.	.	.	2f/	.
=82	=82	=82	=82	=82	=82	=82	=82
0r	.	0r	.	1F	-lis	1d	-lis
.	.	.	.	1E	pec-	1c	pec-
=83.	=83	=83.	=83	=83.	=83	=83.	=83
0r	.	0r	.	0D	-ca-	1f	-ca-
.	.	.	.	.	.	2g/	.
.	.	.	.	.	.	[2a/	.
=84	=84	=84	=84	=84	=84	=84	=84
0r	.	0r	.	0C	-ta	2a/]	.
.	.	.	.	.	.	2g/	.
.	.	.	.	.	.	1e	.
=85.	=85	=85.	=85	=85.	=85	=85.	=85
0r	.	0r	.	1BB	mun-	2d/	.
.	.	.	.	.	.	2f/	.
.	.	.	.	[1C	.	2e/	.
.	.	.	.	.	.	[2g/	.
=86	=86	=86	=86	=86	=86	=86	=86
0r	.	0r	.	1C]	.	2g/]	.
.	.	.	.	.	.	1e	-ta
.	.	.	.	1E	.	.	.
.	.	.	.	.	.	2c/	mun-
=87.	=87	=87.	=87	=87.	=87	=87.	=87
0r	.	0r	.	0D	.	2B/	.
.	.	.	.	.	.	2c/	.
.	.	.	.	.	.	2d/	.
.	.	.	.	.	.	2B/	.
=88	=88	=88	=88	=88	=88	=88	=88
0r	.	0r	.	0C	-di,	[0c	-di,
=89.	=89	=89.	=89	=89.	=89	=89.	=89
0r	.	0r	.	0r	.	0c]	.
=90	=90	=90	=90	=90	=90	=90	=90
[0C	su-	0r	.	1G	su-	0r	.
.	.	.	.	2A/	.	.	.
.	.	.	.	[2c\	.	.	.
=91.	=91	=91.	=91	=91.	=91	=91.	=91
1C]	.	0r	.	2c\]	.	1g	su-
.	.	.	.	2B\	.	.	.
[1C	-sci-	.	.	1A	.	2a/	.
.	.	.	.	.	.	[2cc\	.
=92	=92	=92	=92	=92	=92	=92	=92
1C]	.	0r	.	1G	-sci-	2cc\]	.
.	.	.	.	.	.	2b\	.
1F	.	.	.	2A/	.	1a	.
.	.	.	.	2F/	.	.	.
=93.	=93	=93.	=93	=93.	=93	=93.	=93
1E	.	0r	.	2G/	.	1g	-sci-
.	.	.	.	2E/	.	.	.
1D	.	.	.	2F/	.	2a/	.
.	.	.	.	2D/	.	2f/	.
=94	=94	=94	=94	=94	=94	=94	=94
1C	-pe	0r	.	1E	-pe	2g/	.
.	.	.	.	.	.	2e/	.
1D	.	.	.	2D/	.	2f/	.
.	.	.	.	2F/	.	2d/	.
=95.	=95	=95.	=95	=95.	=95	=95.	=95
1AA	.	0r	.	2E/	.	1e	-pe
.	.	.	.	2C/	.	.	.
1BB-	.	.	.	1D	.	2d/	.
.	.	.	.	.	.	2f/	.
=96	=96	=96	=96	=96	=96	=96	=96
1C	.	0r	.	1C	.	2e/	.
.	.	.	.	.	.	2c/	.
1GG	.	.	.	1BB	.	1d	.
=97.	=97	=97.	=97	=97.	=97	=97.	=97
2r	.	0r	.	0C	.	1c	.
1G	de-	.	.	.	.	.	.
.	.	.	.	.	.	1r	.
[2E\	-pre-	.	.	.	.	.	.
=98	=98	=98	=98	=98	=98	=98	=98
2E\]	.	0r	.	1r	.	1.e	de-
1C	-ca-	.	.	.	.	.	.
.	.	.	.	1G	de-	.	.
2BB-/	.	.	.	.	.	[2d/	-pre-
=99.	=99	=99.	=99	=99.	=99	=99.	=99
2AA/	.	0r	.	2F/	-pre-	1d]	.
1.GG	.	.	.	1G	-ca-	.	.
.	.	.	.	.	.	1g	-ca-
.	.	.	.	2B\	.	.	.
=100	=100	=100	=100	=100	=100	=100	=100
1D	-ti-	0r	.	2A/	-ti-	1f	-ti-
.	.	.	.	2B\	.	.	.
2C/	-o-	.	.	1c	-o-	2e/	-o-
[2F\	.	.	.	.	.	[2a/	.
=101.	=101	=101.	=101	=101.	=101	=101.	=101
2F\]	.	0r	.	2A/	.	2a/]	.
1E	-nem	.	.	2B\	.	1g	-nem
.	.	.	.	2c\	.	.	.
2D\	no-	.	.	[2d\	-nem	2f/	no-
=102	=102	=102	=102	=102	=102	=102	=102
2E\	.	0r	.	2d\]	.	2g/	.
2F\	.	.	.	2c\	no-	2a/	.
1G	.	.	.	2B\	.	2d/	.
.	.	.	.	2G/	.	2e/	.
=103.	=103	=103.	=103	=103.	=103	=103.	=103
0D	.	0r	.	0A	.	2g/	.
.	.	.	.	.	.	1f#i	.
.	.	.	.	.	.	2e/	.
=104	=104	=104	=104	=104	=104	=104	=104
0GG	-stram.	[0G	Be-	1G	-stram.	[0g	-stram.
.	.	.	.	1r	.	.	.
=105.	=105	=105.	=105	=105.	=105	=105.	=105
0r	.	0G]	.	0d	Qui	0g]	.
=106	=106	=106	=106	=106	=106	=106	=106
[0C	Qui	0G	-a-	1.c	se-	0r	.
.	.	.	.	2B\	.	.	.
=107.	=107	=107.	=107	=107.	=107	=107.	=107
0C]	.	[0c	.	1G	-des	0r	.
.	.	.	.	1A	.	.	.
=108	=108	=108	=108	=108	=108	=108	=108
0C	se-	0c]	.	1G	.	0r	.
.	.	.	.	1E	.	.	.
=109.	=109	=109.	=109	=109.	=109	=109.	=109
1D	-des	0A	-ta	1F	.	0r	.
1F	.	.	.	1D	.	.	.
=110	=110	=110	=110	=110	=110	=110	=110
0E	ad	0G	es,	1r	.	0r	.
.	.	.	.	1C	ad	.	.
=111.	=111	=111.	=111	=111.	=111	=111.	=111
1D	dex-	0A	.	1F	dex-	0r	.
[1C	-te-	.	.	[1E	.	.	.
=112	=112	=112	=112	=112	=112	=112	=112
1C]	.	0G	Ma-	2E/]	.	0r	.
.	.	.	.	2D/	-te-	.	.
1BB-	-ram	.	.	[1D	-ram	.	.
=113.	=113	=113.	=113	=113.	=113	=113.	=113
0AA	pa-	0F	.	1D]	.	0r	.
.	.	.	.	1C	pa-	.	.
=114	=114	=114	=114	=114	=114	=114	=114
1GG	-tris,	0G	-ri-	2D/	-tris,	0r	.
.	.	.	.	2r	.	.	.
1BB-	mi-	.	.	1D	mi-	.	.
=115.	=115	=115.	=115	=115.	=115	=115.	=115
1AA	-se-	[0A	.	1E	-se-	0r	.
[1D	-re-	.	.	[1F	-re-	.	.
=116	=116	=116	=116	=116	=116	=116	=116
1D]	.	0A]	.	2F/]	.	0r	.
.	.	.	.	2E/	.	.	.
1C	-re	.	.	1E	-re	.	.
=117.	=117	=117.	=117	=117.	=117	=117.	=117
0BB-	no-	1.G	.	1.D	no-	0r	.
.	.	2F/	.	2C/	.	.	.
=118	=118	=118	=118	=118	=118	=118	=118
0AA	-bis.	[0A	-a,	0E	-bis.	0r	.
=119.	=119	=119.	=119	=119.	=119	=119.	=119
0F	Quo-	0A]	.	1D	.	0r	.
.	.	.	.	1r	.	.	.
=120	=120	=120	=120	=120	=120	=120	=120
1E	-ni-	0r	.	1G	Quo-	0r	.
[1D	-am	.	.	1A	-ni-	.	.
=121.	=121	=121.	=121	=121.	=121	=121.	=121
1D]	.	0r	.	1B	-am	0r	.
1C	tu	.	.	1c	tu	.	.
=122	=122	=122	=122	=122	=122	=122	=122
1D	so-	0r	.	2B\	so-	0r	.
.	.	.	.	1A	.	.	.
1AA	.	.	.	.	.	.	.
.	.	.	.	2F/	.	.	.
=123.	=123	=123.	=123	=123.	=123	=123.	=123
1BB-	-lus	0r	.	1G	-lus	0r	.
1C	.	.	.	1A	.	.	.
=124	=124	=124	=124	=124	=124	=124	=124
1GG	san-	0r	.	1B	.	0r	.
1BB-	.	.	.	[1G	san-	.	.
=125.	=125	=125.	=125	=125.	=125	=125.	=125
0AA	.	0r	.	2G/]	.	0r	.
.	.	.	.	2F#i/	.	.	.
.	.	.	.	2F#i/	.	.	.
.	.	.	.	2E/	.	.	.
=126	=126	=126	=126	=126	=126	=126	=126
0GG	-ctus.	0r	.	1G	-ctus.	0r	.
.	.	.	.	2r	.	.	.
.	.	.	.	[2B\	Tu	.	.
=127.	=127	=127.	=127	=127.	=127	=127.	=127
0G	Tu...	0r	.	2B\]	.	0r	.
.	.	.	.	2c\	so-	.	.
.	.	.	.	1d	-lus	.	.
=128	=128	=128	=128	=128	=128	=128	=128
1C	...do-	0G	que	2e\	do-	0r	.
.	.	.	.	2c\	.	.	.
1E	.	.	.	1c	.	.	.
=129.	=129	=129.	=129	=129.	=129	=129.	=129
0D	-mi-	0F	.	2B\	-mi-	0r	.
.	.	.	.	1B	.	.	.
.	.	.	.	2A/	.	.	.
=130	=130	=130	=130	=130	=130	=130	=130
0C	-nus.	0G	cre-	[0c	-nus.	0e	Tu
=131.	=131	=131.	=131	=131.	=131	=131.	=131
0r	.	0A	-di-	0c]	.	1f	so-
.	.	.	.	.	.	[1e	-lus
=132	=132	=132	=132	=132	=132	=132	=132
0r	.	0A	-di-	0r	.	1e]	.
.	.	.	.	.	.	[1a	al-
=133.	=133	=133.	=133	=133.	=133	=133.	=133
0r	.	[0d	.	0r	.	1a]	.
.	.	.	.	.	.	1d	.
=134	=134	=134	=134	=134	=134	=134	=134
0r	.	1d]	.	0r	.	1f	-tis-
.	.	[1c	-sti	.	.	2g/	.
.	.	.	.	.	.	[2a/	.
=135.	=135	=135.	=135	=135.	=135	=135.	=135
0C	...tis-	2c\]	.	0r	.	2a/]	.
.	.	2B\	.	.	.	2g/	.
.	.	1c	.	.	.	1e	.
=136	=136	=136	=136	=136	=136	=136	=136
0BB-	-si-	0d	.	0r	.	2f/	-si-
.	.	.	.	.	.	2d/	.
.	.	.	.	.	.	2f/	.
.	.	.	.	.	.	2g/	.
=137.	=137	=137.	=137	=137.	=137	=137.	=137
0C	-mus	0c	.	0r	.	0e	-mus
=138	=138	=138	=138	=138	=138	=138	=138
1.F	Je-	0A	per-	0r	.	1r	.
.	.	.	.	.	.	[1f	Je-
2E\	.	.	.	.	.	.	.
=139.	=139	=139.	=139	=139.	=139	=139.	=139
1D	.	1B	-fi-	0r	.	1f]	.
[1C	.	1c	-ci-	.	.	[1e	.
=140	=140	=140	=140	=140	=140	=140	=140
1C]	.	0A	-en-	0r	.	1e]	.
1D	.	.	.	.	.	1d	.
=141.	=141	=141.	=141	=141.	=141	=141.	=141
1AA	-su	0A	-tur	0r	.	1c	-su
1BB-	.	.	.	.	.	1d	.
=142	=142	=142	=142	=142	=142	=142	=142
0C	.	0G	.	0r	.	0e	.
=143.	=143	=143.	=143	=143.	=143	=143.	=143
0D	Chri-	0F	in	0d	Je-	0A	Chri-
=144	=144	=144	=144	=144	=144	=144	=144
0GG	-ste	1G	.	0d	-su	0B-	.
.	.	[1G	.	.	.	.	.
=145.	=145	=145.	=145	=145.	=145	=145.	=145
0r	.	1G]	.	0D 0d	Chri-	0A	-ste
.	.	1F#i	.	.	.	.	.
=146	=146	=146	=146	=146	=146	=146	=146
0GG	cum	0G	te	0D 0d	-ste.	1r	.
.	.	.	.	.	.	1d	cum
=147.	=147	=147.	=147	=147.	=147	=147.	=147
0C	san-	[0G	que	0r	.	1c	.
.	.	.	.	.	.	[1e	san-
=148	=148	=148	=148	=148	=148	=148	=148
0GG	-cto	0G]	.	0B	Cum	2e/]	.
.	.	.	.	.	.	2d/	.
.	.	.	.	.	.	1d	-cto
=149.	=149	=149.	=149	=149.	=149	=149.	=149
1BB-	spi-	1G	dic-	1d	san-	1g	spi-
1AA	.	[1A	.	1c	-cto	2f/	.
.	.	.	.	.	.	[2e/	.
=150	=150	=150	=150	=150	=150	=150	=150
0D	-ri-	1A]	.	[0A	spi-	2e/]	.
.	.	.	.	.	.	2d/	.
.	.	1F	.	.	.	[1d	.
=151.	=151	=151.	=151	=151.	=151	=151.	=151
0AA	-tu,	0E	-ta	1A]	.	1d]	.
.	.	.	.	1A	-ri-	1c#i	-ri-
=152	=152	=152	=152	=152	=152	=152	=152
0r	.	0D	sunt	0A	-tu,	0d	-tu,
=153.	=153	=153.	=153	=153.	=153	=153.	=153
[0D	in	[0F	ti-	1r	.	0r	.
.	.	.	.	[1A	in	.	.
=154	=154	=154	=154	=154	=154	=154	=154
0D]	.	0F]	.	1A]	.	0a	in
.	.	.	.	1d	glo-	.	.
=155.	=155	=155.	=155	=155.	=155	=155.	=155
0E	glo-	0G	-bi	1B	.	1g	.
.	.	.	.	1c	-ri-	[1g	glo-
=156	=156	=156	=156	=156	=156	=156	=156
0D	-ri-	0A	.	0d	-a	1g]	.
.	.	.	.	.	.	1f#i	-ri-
=157.	=157	=157.	=157	=157.	=157	=157.	=157
[0GG	-a	0G	a	0d	de-	0g	-a
=158	=158	=158	=158	=158	=158	=158	=158
0GG]	.	0G	do-	0B	-i	0d 0g	de-
=159.	=159	=159.	=159	=159.	=159	=159.	=159
[0C	pa-	1G	-mi-	1G	pa-	0e	-i
.	.	[1G	-no.	[1c	.	.	.
=160	=160	=160	=160	=160	=160	=160	=160
0C]	.	1G]	.	2c\]	.	0e	pa-
.	.	.	.	2B\	.	.	.
.	.	1F	.	1A	.	.	.
=161.	=161	=161.	=161	=161.	=161	=161.	=161
0C	-tris.	0E	.	[0G	-tris,	1c	-tris.
.	.	.	.	.	.	1r	.
=162	=162	=162	=162	=162	=162	=162	=162
1.GG	A-	0D	.	0G_	.	1.B	A-
2AA/	.	.	.	.	.	2c/	.
=163.	=163	=163.	=163	=163.	=163	=163.	=163
1BB-	.	0r	.	0G]	.	1d	.
1C	.	.	.	.	.	1g	.
=164	=164	=164	=164	=164	=164	=164	=164
3%4DV	.	0F	Al-	0r	.	3%4fV	.
3C/	.	.	.	.	.	3e/	.
3BB-/Z	.	.	.	.	.	3d/Z	.
=165.	=165	=165.	=165	=165.	=165	=165.	=165
0AA	.	0F	-le-	0C	A-	0c	.
=166	=166	=166	=166	=166	=166	=166	=166
1GG	.	[0G	.	1D	.	1B	.
1C	.	.	.	1E-	.	1c	.
=167.	=167	=167.	=167	=167.	=167	=167.	=167
1BB-	.	0G]	.	0D	.	0d	.
1GG	.	.	.	.	.	.	.
=168	=168	=168	=168	=168	=168	=168	=168
0C	.	[0G	-lu-	1E-i	.	1G	.
.	.	.	.	1C	.	[1c	.
=169.	=169	=169.	=169	=169.	=169	=169.	=169
0GG	.	0G]	.	0D	.	2c/]	.
.	.	.	.	.	.	2B/	.
.	.	.	.	.	.	2B/	.
.	.	.	.	.	.	2A/	.
=170	=170	=170	=170	=170	=170	=170	=170
[0Cl	-men.	[0Gl	-ia.	1.E-i	.	[0cl	-men.
.	.	.	.	2C/	.	.	.
=171.	=171	=171.	=171	=171.	=171	=171.	=171
0C]	.	0G]	.	0Cl	-men.	0c]	.
==	==	==	==	==	==	==	==
*-	*-	*-	*-	*-	*-	*-	*-
!!!RDF**kern: l=long note in original notation
!!!RDF**kern: i=editorial accidental
!!!RDF**kern: V=start of tuplet marker
!!!RDF**kern: Z=end of tuplet marker
!!!ENC:	Alejandro Planchart
!!!END:	2014/07/24/
!!!EED:	Alejandro Planchart, Jesse Rodin
!!!EEV:	2014/07/27/
!!!ONB:	Translated from SCORE and edited on 2014/07/27/ by Craig Sapp
!!!SMS: Ed. J. Rodin based on edition by A. Planchart
!!muse2ps: T^@{OPR}^u^@{ONM}{. }@{OTL}^C^@{COM}\n@{SMS}^i2I150v85,85,85,130c160z18
